packages/crayons-icon/icons/lock.svg

<?xml version="1.0" encoding="UTF-8"?>
<svg width="14px" height="16px" viewBox="0 0 14 16" version="1.1" xmlns="http://www.w3.org/2000/svg" xmlns:xlink="http://www.w3.org/1999/xlink">
    <!-- Generator: Sketch 52.6 (67491) - http://www.bohemiancoding.com/sketch -->
    <title>icon/lock</title>
    <desc>Created with Sketch.</desc>
    <g id="Icons-✅" stroke="none" stroke-width="1" fill="none" fill-rule="evenodd">
        <g id="Icons" transform="translate(-81.000000, -1728.000000)" fill="currentColor">
            <g id="icon/lock" transform="translate(81.000000, 1728.000000)">
                <g id="lock">
                    <path d="M11.3,5 C12.7911688,5 14,6.20883118 14,7.7 L14,13.3 C14,14.0160845 13.7155365,14.7028401 13.2091883,15.2091883 C12.7028401,15.7155365 12.0160845,16 11.3,16 L2.7,16 C1.98391548,16 1.29715991,15.7155365 0.790811691,15.2091883 C0.284463469,14.7028401 4.13002965e-14,14.0160845 4.19664303e-14,13.3 L4.19664303e-14,7.7 C-0.000124296242,6.97516763 0.291192475,6.28072465 0.808406744,5.77291428 C1.32562101,5.2651039 2.02529192,4.98657717 2.75,5 L2.75,4.25 C2.75,1.90278981 4.65278981,-1.43725172e-16 7,0 C9.34721019,1.43725172e-16 11.25,1.90278981 11.25,4.25 L11.25,5 L11.3,5 Z M4.15,4.25 L4.15,5 L9.85,5 L9.85,4.25 C9.85,2.67598846 8.57401154,1.4 7,1.4 C5.42598846,1.4 4.15,2.67598846 4.15,4.25 Z M12.6,13.3 L12.6,7.7 C12.6,6.98202983 12.0179702,6.4 11.3,6.4 L2.7,6.4 C1.98202983,6.4 1.4,6.98202983 1.4,7.7 L1.4,13.3 C1.4,13.6447814 1.53696389,13.9754415 1.78076118,14.2192388 C2.02455848,14.4630361 2.35521856,14.6 2.7,14.6 L11.3,14.6 C12.0179702,14.6 12.6,14.0179702 12.6,13.3 Z M7,8.53 C7.71797017,8.53 8.3,9.11202983 8.3,9.83 C8.29353763,10.2624482 8.06744366,10.6618809 7.7,10.89 L7.7,11.7 C7.7,12.0865993 7.38659932,12.4 7,12.4 C6.61340068,12.4 6.3,12.0865993 6.3,11.7 L6.3,10.89 C5.93255634,10.6618809 5.70646237,10.2624482 5.7,9.83 C5.7,9.11202983 6.28202983,8.53 7,8.53 Z" id="Combined-Shape"></path>
                </g>
            </g>
        </g>
    </g>
</svg>

<svg viewBox="0 0 14 16"><path d="M11.3 5A2.7 2.7 0 0 1 14 7.7v5.6a2.7 2.7 0 0 1-2.7 2.7H2.7A2.7 2.7 0 0 1 0 13.3V7.7A2.7 2.7 0 0 1 2.75 5v-.75a4.25 4.25 0 1 1 8.5 0V5h.05zm-7.15-.75V5h5.7v-.75a2.85 2.85 0 1 0-5.7 0zm8.45 9.05V7.7a1.3 1.3 0 0 0-1.3-1.3H2.7a1.3 1.3 0 0 0-1.3 1.3v5.6a1.3 1.3 0 0 0 1.3 1.3h8.6a1.3 1.3 0 0 0 1.3-1.3zM7 8.53a1.3 1.3 0 0 1 1.3 1.3 1.27 1.27 0 0 1-.6 1.06v.81a.7.7 0 0 1-1.4 0v-.81a1.27 1.27 0 0 1-.6-1.06A1.3 1.3 0 0 1 7 8.53z" fill="currentColor" fill-rule="evenodd"/></svg>
